X:2
T:Dunbarton Reel
C:Jim Magill
R:reel
M:4/4
L:1/8
Z:abc by Bruce Osborne - bosborne@kos.net
K:D
A2|d2Ac d2A2|defd edBA|d2Ac d2A2|ABAG FDD2|
d2Ac d2A2|defd edBA|defg abag|fdec d2:|
|:A2|DEFG A2A2|defd edBA|DEFG A2A2|ABAF E4|
DEFG A2A2|defd edBA|defg abag|fdec d2:|
